X:202 
T:Tailor's Thimble (reel), The 
F:file ID: cre.5/202tail_t
B:CRE5.153 (MÃÂÃÂÃÂÃÂ©aracÃÂÃÂÃÂÃÂ¡n an TÃÂÃÂÃÂÃÂ¡illiÃÂÃÂÃÂÃÂºra)
M:4/4
Q:180
R:reel
K:D
"D modal"
cA~A2 A2dB|cBAG EFGE|cA ~A2 A2dB|cAGE EDD2:|
Add^c d2ed|cdef gfed|Add^c d2ed|cAGE EDD2|
Add^c d2ed|cdef gfeg|fde^c d2ed|cAGE EDD2|]

%%%

